src/topics/icons/opensource.svg

<svg height="248" preserveAspectRatio="xMidYMid" viewBox="0 0 256 248" width="256" xmlns="http://www.w3.org/2000/svg"><path d="m143.337088 167.832012c22.062705-8.4727 33.081721-33.231426 24.61169-55.301084-8.470031-22.0692176-33.221398-33.0917056-55.283663-24.6194462-22.0627054 8.4727002-33.0812802 33.2318672-24.6116899 55.3010842 4.3458314 11.324408 13.2912909 20.272246 24.6116899 24.619446l-28.8235728 75.129046c-63.5417556-24.395982-95.2813494-95.700125-70.8926128-159.2619049 24.3887367-63.5617798 95.6699756-95.3113759 159.2117316-70.9149535s95.281349 95.7001244 70.892613 159.2619044c-12.516241 32.620094-38.282796 58.394768-70.892613 70.914954z" fill="#3da639"/><g fill="#1d531d"><path d="m172.160661 247.368643c-.612021 0-1.22316-.12738-1.792881-.381257-1.067622-.475137-1.902155-1.355773-2.320744-2.44665l-28.823573-75.129486c-.871986-2.272551.262609-4.821457 2.534444-5.694159 9.57158-3.675485 17.139663-10.859848 21.309246-20.229491 4.170024-9.369203 4.442768-19.802397.768-29.376994-7.585267-19.7653727-29.83127-29.6727417-49.590857-22.084203-19.7587056 7.5880979-29.6629535 29.841553-22.0772461 49.606485 3.8919931 10.141852 11.9390291 18.190984 22.0772461 22.084203 2.271835.872702 3.40643 3.421608 2.534444 5.694159l-28.823573 75.129486c-.4185887 1.090877-1.2535629 1.971513-2.3211842 2.44665-1.0671807.47602-2.2797659.507754-3.3711807.088593-31.8303615-12.22091-56.9981136-36.109579-70.8666162-67.265914-13.8685026-31.155895-14.77794149-65.849757-2.56088125-97.6901495 12.21706025-31.8403924 36.09864375-57.0160757 67.24472285-70.8889488 31.1460795-13.87287301 65.8290125-14.7825985 97.6593735-2.56168824 31.830361 12.22091024 56.998114 36.10957894 70.866616 67.26591404 13.868503 31.1558945 14.778382 65.8497575 2.560881 97.6901495-12.943201 33.732128-39.706437 60.503797-73.427497 73.450637-.508916.195697-1.044268.292664-1.57874.292664zm-44.20296-238.42741656c-16.432909 0-32.8305685 3.45554646-48.2932328 10.34283836-28.9958555 12.9151049-51.2281997 36.3524369-62.601914 65.9947666-11.37371427 29.6418886-10.52684336 61.9402296 2.3841928 90.9456636 12.3122341 27.659357 34.188117 49.165726 61.8885508 60.968357l25.7114772-67.01909c-10.553281-5.234888-18.8501485-14.290271-23.1069747-25.381517-9.3270361-24.302982 2.850809-51.6652681 27.1461347-60.9952435 24.296647-9.330857 51.648991 2.8517073 60.976468 27.1542485 4.518113 11.773099 4.182802 24.601375-.944689 36.121479-4.524723 10.167857-12.305184 18.242993-22.160523 23.106322l25.708833 67.011156c29.465115-12.591147 52.751422-36.694465 64.273625-66.723781 11.373714-29.641889 10.527284-61.940229-2.384193-90.9452225-12.911036-29.0054338-36.340984-51.245225-65.973535-62.6220828-13.83105-5.3102581-28.241074-7.95789426-42.62422-7.95789426z"/><path d="m237.741318 229.574755c-1.596997 1.633293-2.395484 3.57053-2.395484 5.811771 0 2.322905.812097 4.296437 2.436316 5.920656 1.615145 1.624218 3.565993 2.436315 5.852602 2.436315 2.277536 0 4.223847-.816634 5.838992-2.449926 1.615145-1.642367 2.422705-3.611362 2.422705-5.907045 0-2.232167-.803023-4.169404-2.409094-5.811771-1.624219-1.669588-3.575067-2.504369-5.852603-2.504369-2.304757 0-4.269215.834781-5.893434 2.504369zm12.916557 13.011833c-1.950877 1.88736-4.291895 2.831026-7.023123 2.831026-2.821966 0-5.199279-.96635-7.132008-2.89908-1.93273-1.932729-2.89908-4.310042-2.89908-7.132008 0-2.930853 1.043477-5.367145 3.130462-7.308948 1.959951-1.814769 4.260137-2.722141 6.900626-2.722141 2.767524 0 5.131226.979961 7.091177 2.939912s2.939912 4.323653 2.939912 7.091177c0 2.849188-1.002646 5.249184-3.007966 7.200062zm-6.111206-10.548295c-.399249-.154256-.961819-.231382-1.687727-.231382h-.707756v3.225736h1.129688c.680539 0 1.211351-.136105 1.592452-.408321.381102-.272215.57165-.71229.57165-1.320238s-.299433-1.029875-.898307-1.265795zm-5.308174 8.928621v-11.119945c.689613 0 1.721747.002269 3.096435.006806s2.139148.011342 2.293404.020416c.880163.063517 1.610597.254065 2.191323.571649.989049.544431 1.483567 1.429118 1.483567 2.654088 0 .934606-.26087 1.610597-.782616 2.027994s-1.163711.666924-1.925914.748589c.698686.145182 1.224961.358414 1.578841.639703.653317.526283.979971 1.356528.979971 2.490759v.993581c0 .108886.006805.217771.020416.326657s.038563.217771.074859.326657l.095275.313046h-2.776584c-.090738-.35388-.149717-.866545-.176939-1.53801-.027221-.671464-.086201-1.12515-.176939-1.36107-.145182-.390175-.417393-.662387-.816642-.816642-.217773-.090738-.548963-.149718-.993582-.176939l-.639703-.040832h-.612481v3.933493z"/></g></svg>

<?xml version="1.0" encoding="UTF-8" standalone="no"?>
<svg width="256px" height="248px" viewBox="0 0 256 248" version="1.1" xmlns="http://www.w3.org/2000/svg" xmlns:xlink="http://www.w3.org/1999/xlink" preserveAspectRatio="xMidYMid">
	<g>
		<path d="M143.337088,167.832012 C165.399793,159.359312 176.418809,134.600586 167.948778,112.530928 C159.478747,90.4617104 134.72738,79.4392224 112.665115,87.9114818 C90.6024096,96.384182 79.5838348,121.143349 88.0534251,143.212566 C92.3992565,154.536974 101.344716,163.484812 112.665115,167.832012 L83.8415422,242.961058 C20.2997866,218.565076 -11.4398072,147.260933 12.9489294,83.6991531 C37.3376661,20.1373733 108.618905,-11.6122228 172.160661,12.7841996 C235.702417,37.180622 267.44201,108.484324 243.053274,172.046104 C230.537033,204.666198 204.770478,230.440872 172.160661,242.961058 L143.337088,167.832012" fill="#3DA639"></path>
		<path d="M172.160661,247.368643 C171.54864,247.368643 170.937501,247.241263 170.36778,246.987386 C169.300158,246.512249 168.465625,245.631613 168.047036,244.540736 L139.223463,169.41125 C138.351477,167.138699 139.486072,164.589793 141.757907,163.717091 C151.329487,160.041606 158.89757,152.857243 163.067153,143.4876 C167.237177,134.118397 167.509921,123.685203 163.835153,114.110606 C156.249886,94.3452333 134.003883,84.4378643 114.244296,92.026403 C94.4855904,99.6145009 84.5813425,121.867956 92.1670499,141.632888 C96.059043,151.77474 104.106079,159.823872 114.244296,163.717091 C116.516131,164.589793 117.650726,167.138699 116.77874,169.41125 L87.955167,244.540736 C87.5365783,245.631613 86.7016041,246.512249 85.6339828,246.987386 C84.5668021,247.463406 83.3542169,247.49514 82.2628021,247.075979 C50.4324406,234.855069 25.2646885,210.9664 11.3961859,179.810065 C-2.4723167,148.65417 -3.38175559,113.960308 8.83530465,82.1199155 C21.0523649,50.2795231 44.9339484,25.1038398 76.0800275,11.2309667 C107.226107,-2.64190631 141.90904,-3.5516318 173.739401,8.66927846 C205.569762,20.8901887 230.737515,44.7788574 244.606017,75.9351925 C258.47452,107.091087 259.384399,141.78495 247.166898,173.625342 C234.223697,207.35747 207.460461,234.129139 173.739401,247.075979 C173.230485,247.271676 172.695133,247.368643 172.160661,247.368643 L172.160661,247.368643 Z M127.957701,8.94122644 C111.524792,8.94122644 95.1271325,12.3967729 79.6644682,19.2840648 C50.6686127,32.1991697 28.4362685,55.6365017 17.0625542,85.2788314 C5.68883993,114.92072 6.53571084,147.219061 19.446747,176.224495 C31.7589811,203.883852 53.634864,225.390221 81.3352978,237.192852 L107.046775,170.173762 C96.493494,164.938874 88.1966265,155.883491 83.9398003,144.792245 C74.6127642,120.489263 86.7906093,93.1269769 111.085935,83.7970015 C135.382582,74.4661445 162.734926,86.6487088 172.062403,110.95125 C176.580516,122.724349 176.245205,135.552625 171.117714,147.072729 C166.592991,157.240586 158.81253,165.315722 148.957191,170.179051 L174.666024,237.190207 C204.131139,224.59906 227.417446,200.495742 238.939649,170.466426 C250.313363,140.824537 249.466933,108.526197 236.555456,79.5212035 C223.64442,50.5157697 200.214472,28.2759785 170.581921,16.8991207 C156.750871,11.5888626 142.340847,8.94122644 127.957701,8.94122644 L127.957701,8.94122644 Z" fill="#1D531D"></path>
		<path d="M237.741318,229.574755 C236.144321,231.208048 235.345834,233.145285 235.345834,235.386526 C235.345834,237.709431 236.157931,239.682963 237.78215,241.307182 C239.397295,242.9314 241.348143,243.743497 243.634752,243.743497 C245.912288,243.743497 247.858599,242.926863 249.473744,241.293571 C251.088889,239.651204 251.896449,237.682209 251.896449,235.386526 C251.896449,233.154359 251.093426,231.217122 249.487355,229.574755 C247.863136,227.905167 245.912288,227.070386 243.634752,227.070386 C241.329995,227.070386 239.365537,227.905167 237.741318,229.574755 L237.741318,229.574755 Z M250.657875,242.586588 C248.706998,244.473948 246.36598,245.417614 243.634752,245.417614 C240.812786,245.417614 238.435473,244.451264 236.502744,242.518534 C234.570014,240.585805 233.603664,238.208492 233.603664,235.386526 C233.603664,232.455673 234.647141,230.019381 236.734126,228.077578 C238.694077,226.262809 240.994263,225.355437 243.634752,225.355437 C246.402276,225.355437 248.765978,226.335398 250.725929,228.295349 C252.68588,230.2553 253.665841,232.619002 253.665841,235.386526 C253.665841,238.235714 252.663195,240.63571 250.657875,242.586588 L250.657875,242.586588 Z M244.546669,232.038293 C244.14742,231.884037 243.58485,231.806911 242.858942,231.806911 L242.151186,231.806911 L242.151186,235.032647 L243.280874,235.032647 C243.961413,235.032647 244.492225,234.896542 244.873326,234.624326 C245.254428,234.352111 245.444976,233.912036 245.444976,233.304088 C245.444976,232.69614 245.145543,232.274213 244.546669,232.038293 L244.546669,232.038293 Z M239.238495,240.966914 L239.238495,229.846969 C239.928108,229.846969 240.960242,229.849238 242.33493,229.853775 C243.709618,229.858312 244.474078,229.865117 244.628334,229.874191 C245.508497,229.937708 246.238931,230.128256 246.819657,230.44584 C247.808706,230.990271 248.303224,231.874958 248.303224,233.099928 C248.303224,234.034534 248.042354,234.710525 247.520608,235.127922 C246.998862,235.545319 246.356897,235.794846 245.594694,235.876511 C246.29338,236.021693 246.819655,236.234925 247.173535,236.516214 C247.826852,237.042497 248.153506,237.872742 248.153506,239.006973 L248.153506,240.000554 C248.153506,240.10944 248.160311,240.218325 248.173922,240.327211 C248.187533,240.436097 248.212485,240.544982 248.248781,240.653868 L248.344056,240.966914 L245.567472,240.966914 C245.476734,240.613034 245.417755,240.100369 245.390533,239.428904 C245.363312,238.75744 245.304332,238.303754 245.213594,238.067834 C245.068412,237.677659 244.796201,237.405447 244.396952,237.251192 C244.179179,237.160454 243.847989,237.101474 243.40337,237.074253 L242.763667,237.033421 L242.151186,237.033421 L242.151186,240.966914 L239.238495,240.966914 Z" fill="#1D531D"></path>
	</g>
</svg>
